public/img/icons/discord_white.svg

<svg width="24" height="18" viewBox="0 0 24 18" fill="none" xmlns="http://www.w3.org/2000/svg">
<path d="M19.6706 1.46816C18.1896 0.788614 16.6014 0.287953 14.9409 0.00120288C14.9106 -0.0043313 14.8804 0.00949891 14.8649 0.03716C14.6606 0.400436 14.4344 0.87436 14.2759 1.24686C12.4899 0.97948 10.7131 0.97948 8.96374 1.24686C8.80527 0.86608 8.57082 0.400436 8.36565 0.03716C8.35007 0.0104218 8.31986 -0.00340839 8.28962 0.00120288C6.63002 0.287036 5.04187 0.787698 3.55994 1.46816C3.54711 1.47369 3.53612 1.48292 3.52882 1.4949C0.51642 5.99536 -0.308802 10.3852 0.0960244 14.7206C0.0978561 14.7418 0.109763 14.7621 0.126249 14.775C2.11374 16.2346 4.03897 17.1207 5.92845 17.708C5.95869 17.7172 5.99073 17.7062 6.00997 17.6813C6.45693 17.0709 6.85535 16.4273 7.19696 15.7505C7.21712 15.7109 7.19787 15.6638 7.15667 15.6482C6.52471 15.4084 5.92295 15.1162 5.3441 14.7842C5.29832 14.7575 5.29465 14.692 5.33677 14.6607C5.45858 14.5694 5.58043 14.4744 5.69674 14.3785C5.71778 14.361 5.74711 14.3573 5.77185 14.3684C9.57463 16.1046 13.6916 16.1046 17.4495 14.3684C17.4742 14.3564 17.5036 14.3601 17.5255 14.3776C17.6419 14.4735 17.7637 14.5694 17.8864 14.6607C17.9285 14.692 17.9258 14.7575 17.88 14.7842C17.3011 15.1226 16.6994 15.4084 16.0665 15.6473C16.0253 15.6629 16.007 15.7109 16.0271 15.7505C16.3761 16.4264 16.7745 17.0699 17.2132 17.6803C17.2315 17.7062 17.2645 17.7172 17.2947 17.708C19.1934 17.1207 21.1186 16.2346 23.1061 14.775C23.1235 14.7621 23.1345 14.7427 23.1363 14.7215C23.6208 9.70932 22.3248 5.35548 19.7008 1.49582C19.6944 1.48292 19.6834 1.47369 19.6706 1.46816ZM7.76484 12.0808C6.61994 12.0808 5.67658 11.0297 5.67658 9.73884C5.67658 8.44797 6.60165 7.39687 7.76484 7.39687C8.93716 7.39687 9.8714 8.4572 9.85307 9.73884C9.85307 11.0297 8.928 12.0808 7.76484 12.0808ZM15.4858 12.0808C14.341 12.0808 13.3976 11.0297 13.3976 9.73884C13.3976 8.44797 14.3226 7.39687 15.4858 7.39687C16.6582 7.39687 17.5924 8.4572 17.5741 9.73884C17.5741 11.0297 16.6582 12.0808 15.4858 12.0808Z" fill="white"/>
</svg>

<svg width="24" height="18" fill="none" xmlns="http://www.w3.org/2000/svg"><path d="M19.67 1.468A19.162 19.162 0 0 0 14.94.001a.072.072 0 0 0-.075.036c-.204.363-.43.837-.59 1.21a17.69 17.69 0 0 0-5.311 0C8.805.867 8.57.4 8.366.037A.075.075 0 0 0 8.29.001C6.63.287 5.042.788 3.56 1.468a.068.068 0 0 0-.031.027C.516 5.995-.31 10.385.096 14.72a.08.08 0 0 0 .03.054 19.268 19.268 0 0 0 5.802 2.933c.03.01.063-.002.082-.027.447-.61.845-1.254 1.187-1.93.02-.04 0-.087-.04-.103a12.69 12.69 0 0 1-1.813-.864.074.074 0 0 1-.007-.123c.122-.092.243-.187.36-.282a.072.072 0 0 1 .075-.01c3.803 1.736 7.92 1.736 11.677 0a.071.071 0 0 1 .076.009c.117.095.239.191.361.283a.074.074 0 0 1-.006.123c-.579.339-1.18.624-1.813.863a.074.074 0 0 0-.04.104c.35.675.747 1.319 1.186 1.93a.074.074 0 0 0 .082.027 19.203 19.203 0 0 0 5.811-2.933.075.075 0 0 0 .03-.053c.485-5.013-.811-9.367-3.435-13.226a.06.06 0 0 0-.03-.028ZM7.766 12.081c-1.145 0-2.088-1.051-2.088-2.342 0-1.291.925-2.342 2.088-2.342 1.172 0 2.106 1.06 2.088 2.342 0 1.29-.925 2.342-2.088 2.342Zm7.72 0c-1.144 0-2.087-1.051-2.087-2.342 0-1.291.925-2.342 2.088-2.342 1.172 0 2.106 1.06 2.088 2.342 0 1.29-.916 2.342-2.088 2.342Z" fill="#fff"/></svg>
